app/assets/images/Contenido/Instagram.svg

<svg fill="none" height="80" viewBox="0 0 80 80" width="80" xmlns="http://www.w3.org/2000/svg"><path d="m44.112.00492141c2.9188-.01120051 5.8376.01813499 8.7556.08799729l.7759.0279993c.896.031999 1.78.071997 2.8479.119995 4.2558.199994 7.1596.871967 9.7075 1.859937 2.6399 1.01597 4.8638 2.39192 7.0876 4.61584 2.0334 1.99836 3.6072 4.41561 4.6118 7.08381.988 2.5479 1.6599 5.4558 1.8599 9.7116.048 1.064.088 1.952.12 2.8479l.024.776c.0711 2.9167.1017 5.8342.092 8.7517l.004 2.9839v5.2398c.0099 2.9189-.0208 5.8377-.092 8.7557l-.024.776c-.032.896-.072 1.7799-.12 2.8479-.2 4.2559-.8799 7.1598-1.8639 9.7077-1.0014 2.6709-2.5755 5.0902-4.6118 7.0877-2 2.0332-4.4185 3.6069-7.0876 4.6119-2.5479.9879-5.4517 1.6599-9.7075 1.8599-1.0679.048-1.9519.088-2.8479.12l-.7759.024c-2.918.0711-5.8368.1018-8.7556.092l-2.9838.004h-5.2357c-2.9188.0099-5.8376-.0208-8.7556-.092l-.7759-.024c-.9496-.0344-1.8989-.0744-2.8479-.12-4.2558-.2-7.1596-.88-9.7115-1.8639-2.6691-1.0026-5.08679-2.5766-7.08364-4.6119-2.03571-1.9988-3.61092-4.4176-4.61576-7.0877-.98795-2.5479-1.659915-5.4518-1.859905-9.7077-.044546-.9491-.084544-1.8984-.119993-2.8479l-.019999-.776c-.0737417-2.9179-.10707694-5.8368-.09999512-8.7557v-8.2237c-.01116329-2.9175.01817162-5.835.08799582-8.7517l.0279983-.776c.031998-.8959.071996-1.7839.119994-2.8479.199989-4.2598.871954-7.1597 1.859904-9.7116 1.00544-2.6695 2.58372-5.08609 4.62376-7.07981 1.99548-2.03692 4.41164-3.61358 7.07964-4.61984 2.5519-.98797 5.4517-1.659943 9.7115-1.859937l2.8479-.119995.7759-.019999c2.9166-.0737064 5.8341-.10704219 8.7516-.09999716zm-4.1117 19.99927859c-2.6499-.0374-5.2807.4521-7.7397 1.4403-2.459.9881-4.6971 2.4551-6.5842 4.3158-1.8871 1.8606-3.3856 4.0778-4.4084 6.5226s-1.5495 5.0685-1.5495 7.7187c0 2.6501.5267 5.2738 1.5495 7.7186 1.0228 2.4449 2.5213 4.662 4.4084 6.5227 1.8871 1.8606 4.1252 3.3276 6.5842 4.3158 2.459.9881 5.0898 1.4777 7.7397 1.4402 5.304 0 10.3908-2.1071 14.1414-5.8577 3.7505-3.7506 5.8575-8.8375 5.8575-14.1416 0-5.3042-2.107-10.3911-5.8575-14.1417-3.7506-3.7506-8.8374-5.8537-14.1414-5.8537zm0 7.9998c1.5939-.0294 3.1777.2591 4.6589.8488 1.4812.5896 2.83 1.4685 3.9677 2.5852 1.1377 1.1168 2.0415 2.4491 2.6585 3.9191.6171 1.47.935 3.0482.9353 4.6424.0003 1.5943-.3172 3.1726-.9337 4.6428-.6166 1.4702-1.5199 2.8028-2.6572 3.9199-1.1374 1.1172-2.4859 1.9965-3.9669 2.5866s-3.0647.8792-4.6586.8504c-3.1825 0-6.2346-1.2643-8.4849-3.5146-2.2503-2.2504-3.5145-5.3025-3.5145-8.485s1.2642-6.2347 3.5145-8.485c2.2503-2.2504 5.3024-3.5146 8.4849-3.5146zm20.9989-13.9996c-1.2904.0517-2.5107.6006-3.4054 1.5319-.8947.9312-1.3944 2.1726-1.3944 3.464s.4997 2.5327 1.3944 3.464c.8947.9312 2.115 1.4802 3.4054 1.5318 1.326 0 2.5977-.5268 3.5353-1.4644.9377-.9377 1.4644-2.2094 1.4644-3.5354 0-1.3261-.5267-2.5978-1.4644-3.5354-.9376-.9377-2.2093-1.4645-3.5353-1.4645z" fill="#dd1c3e"/></svg>

<svg width="80" height="80" viewBox="0 0 80 80" fill="none" xmlns="http://www.w3.org/2000/svg">
<path d="M44.112 0.00492141C47.0308 -0.0062791 49.9496 0.0230564 52.8676 0.0929187L53.6435 0.120918C54.5395 0.152917 55.4235 0.192915 56.4914 0.240913C60.7472 0.440907 63.651 1.11288 66.1989 2.10085C68.8388 3.11682 71.0627 4.49277 73.2865 6.71669C75.3199 8.71505 76.8937 11.1323 77.8983 13.8005C78.8863 16.3484 79.5582 19.2563 79.7582 23.5121C79.8062 24.5761 79.8462 25.4641 79.8782 26.36L79.9022 27.136C79.9733 30.0527 80.0039 32.9702 79.9942 35.8877L79.9982 38.8716V44.1114C80.0081 47.0303 79.9774 49.9491 79.9062 52.8671L79.8822 53.6431C79.8502 54.5391 79.8102 55.423 79.7622 56.491C79.5622 60.7469 78.8823 63.6508 77.8983 66.1987C76.8969 68.8696 75.3228 71.2889 73.2865 73.2864C71.2865 75.3196 68.868 76.8933 66.1989 77.8983C63.651 78.8862 60.7472 79.5582 56.4914 79.7582C55.4235 79.8062 54.5395 79.8462 53.6435 79.8782L52.8676 79.9022C49.9496 79.9733 47.0308 80.004 44.112 79.9942L41.1282 79.9982H35.8925C32.9737 80.0081 30.0549 79.9774 27.1369 79.9062L26.361 79.8822C25.4114 79.8478 24.4621 79.8078 23.5131 79.7622C19.2573 79.5622 16.3535 78.8822 13.8016 77.8983C11.1325 76.8957 8.71481 75.3217 6.71796 73.2864C4.68225 71.2876 3.10704 68.8688 2.1022 66.1987C1.11425 63.6508 0.442285 60.7469 0.242295 56.491C0.197749 55.5419 0.157751 54.5926 0.122302 53.6431L0.102303 52.8671C0.0285613 49.9492 -0.00477394 47.0303 0.00230788 44.1114V35.8877C-0.00885541 32.9702 0.0204795 30.0527 0.0903037 27.136L0.118302 26.36C0.1503 25.4641 0.190298 24.5761 0.238296 23.5121C0.438285 19.2523 1.11025 16.3524 2.0982 13.8005C3.10364 11.131 4.68192 8.71441 6.72196 6.72069C8.71744 4.68377 11.1336 3.10711 13.8016 2.10085C16.3535 1.11288 19.2533 0.440907 23.5131 0.240913L26.361 0.120918L27.1369 0.100919C30.0535 0.0272126 32.971 -0.00612319 35.8885 0.00092184L44.112 0.00492141ZM40.0003 20.0042C37.3504 19.9668 34.7196 20.4563 32.2606 21.4445C29.8016 22.4326 27.5635 23.8996 25.6764 25.7603C23.7893 27.6209 22.2908 29.8381 21.268 32.2829C20.2452 34.7277 19.7185 37.3514 19.7185 40.0016C19.7185 42.6517 20.2452 45.2754 21.268 47.7202C22.2908 50.1651 23.7893 52.3822 25.6764 54.2429C27.5635 56.1035 29.8016 57.5705 32.2606 58.5587C34.7196 59.5468 37.3504 60.0364 40.0003 59.9989C45.3043 59.9989 50.3911 57.8918 54.1417 54.1412C57.8922 50.3906 59.9992 45.3037 59.9992 39.9996C59.9992 34.6954 57.8922 29.6085 54.1417 25.8579C50.3911 22.1073 45.3043 20.0042 40.0003 20.0042ZM40.0003 28.004C41.5942 27.9746 43.178 28.2631 44.6592 28.8528C46.1404 29.4424 47.4892 30.3213 48.6269 31.438C49.7646 32.5548 50.6684 33.8871 51.2854 35.3571C51.9025 36.8271 52.2204 38.4053 52.2207 39.9995C52.221 41.5938 51.9035 43.1721 51.287 44.6423C50.6704 46.1125 49.7671 47.4451 48.6298 48.5622C47.4924 49.6794 46.1439 50.5587 44.6629 51.1488C43.1819 51.7389 41.5982 52.028 40.0043 51.9992C36.8218 51.9992 33.7697 50.7349 31.5194 48.4846C29.2691 46.2342 28.0049 43.1821 28.0049 39.9996C28.0049 36.8171 29.2691 33.7649 31.5194 31.5146C33.7697 29.2642 36.8218 28 40.0043 28L40.0003 28.004ZM60.9992 14.0044C59.7088 14.0561 58.4885 14.605 57.5938 15.5363C56.6991 16.4675 56.1994 17.7089 56.1994 19.0003C56.1994 20.2917 56.6991 21.533 57.5938 22.4643C58.4885 23.3955 59.7088 23.9445 60.9992 23.9961C62.3252 23.9961 63.5969 23.4693 64.5345 22.5317C65.4722 21.594 65.9989 20.3223 65.9989 18.9963C65.9989 17.6702 65.4722 16.3985 64.5345 15.4609C63.5969 14.5232 62.3252 13.9964 60.9992 13.9964V14.0044Z" fill="#DD1C3E"/>
</svg>
